src/images/circuits/abu.svg

<svg width="40" height="26" viewBox="0 0 40 26" fill="none" xmlns="http://www.w3.org/2000/svg">
<path d="M16.7112 1.0003L38.3536 1.10001C38.4571 1.10048 38.5599 1.1325 38.6405 1.19748C39.897 2.21044 37.5836 2.4683 35.9478 2.47475C35.7246 2.47563 35.5259 2.61887 35.4602 2.83225L35.2268 3.59106C35.1957 3.69206 35.1345 3.7804 35.0485 3.8417C34.1684 4.46846 32.047 5.70022 29.5898 6.2959C26.354 7.08034 26.452 6.59007 25.0792 7.57062C24.0562 8.30137 23.6912 10.9041 23.6196 12.3668C23.6105 12.5531 23.5033 12.721 23.3358 12.8031L19.0428 14.9076C18.8003 15.0264 18.5072 14.9312 18.3808 14.6925L12.6533 3.87387C12.5283 3.6379 12.2401 3.54171 11.9985 3.6554L10.8588 4.19171C10.7957 4.2214 10.7396 4.26396 10.6939 4.31665L8.4394 6.91798C8.30351 7.07477 8.27858 7.29921 8.37675 7.482L11.0278 12.4185C11.0474 12.455 11.0624 12.4937 11.0724 12.5338L11.348 13.636C11.4067 13.8711 11.2885 14.1145 11.0674 14.2136L8.98092 15.1489C8.763 15.2466 8.50642 15.1765 8.36838 14.9817L7.18693 13.3137C7.04428 13.1123 6.77627 13.0446 6.55758 13.159C5.71779 13.5981 4.49319 14.2944 4.29148 14.6306C3.99732 15.1209 3.40898 17.5723 3.50704 18.1606C3.57886 18.5915 5.19046 21.6856 6.18957 23.5596C6.32837 23.8199 6.21327 24.1427 5.9412 24.2568L3.82518 25.1441C3.58875 25.2433 3.31768 25.1453 3.16293 24.9409C2.91579 24.6145 2.5643 24.2828 2.23232 24.3381C1.64399 24.4362 1.34951 24.9264 1.05534 23.6517C0.761177 22.377 1.64382 16.1995 3.60493 10.7084C5.04389 6.67931 7.52769 4.32195 8.8623 3.45477C9.05383 3.33032 9.15532 3.10119 9.09991 2.8796L8.87145 1.96612C8.78878 1.63559 9.05367 1.321 9.39344 1.34617L13.9163 1.68118C13.9709 1.68523 14.0258 1.68027 14.0789 1.66651L16.5832 1.01634C16.625 1.00549 16.668 1.0001 16.7112 1.0003Z" stroke="#FF0000"/>
</svg>

<svg width="40" height="26" fill="none" xmlns="http://www.w3.org/2000/svg"><path d="m16.711 1 21.643.1a.46.46 0 0 1 .287.097c1.256 1.013-1.057 1.271-2.693 1.278a.51.51 0 0 0-.488.357l-.233.76a.478.478 0 0 1-.178.25c-.88.626-3.002 1.858-5.46 2.454-3.235.784-3.137.294-4.51 1.275-1.023.73-1.388 3.333-1.46 4.796a.512.512 0 0 1-.283.436l-4.293 2.105a.5.5 0 0 1-.662-.215l-5.728-10.82a.5.5 0 0 0-.655-.218l-1.14.537a.5.5 0 0 0-.164.125L8.439 6.918a.5.5 0 0 0-.062.564l2.65 4.936c.02.037.035.076.045.116l.276 1.102a.5.5 0 0 1-.28.578l-2.087.935a.5.5 0 0 1-.613-.167l-1.181-1.668a.492.492 0 0 0-.63-.155c-.84.44-2.064 1.135-2.266 1.472-.294.49-.882 2.941-.784 3.53.072.43 1.683 3.525 2.683 5.399a.5.5 0 0 1-.249.697l-2.116.887c-.236.1-.507.001-.662-.203-.247-.326-.599-.658-.93-.603-.589.098-.883.588-1.178-.686-.294-1.275.589-7.453 2.55-12.944C5.044 6.68 7.528 4.322 8.862 3.455A.536.536 0 0 0 9.1 2.88l-.229-.914a.5.5 0 0 1 .522-.62l4.523.335a.5.5 0 0 0 .163-.014l2.504-.65A.5.5 0 0 1 16.711 1Z" stroke="red"/></svg>
